X: 4
T: The Hills Of Glenorchy
R: jig
M: 6/8
L: 1/8
K: Edor
|: d |B2 E EFE | BAB d2 B | AFD DED | AFA d2 d |
B2 E EFE | BAB d2 e | dBd AFD | EFE E2 :|
|: d |efe edB | efg gfe | ded dAB | def fed |
gbg faf | ege BdB | dBd AFD | EFE E2 :|


Tune 842	Setting 27529

